learning-site/svg (59).svg

<svg xmlns="http://www.w3.org/2000/svg" xmlns:xlink="http://www.w3.org/1999/xlink" viewBox="0 0 100 100" version="1.1"><!-- Generator: Sketch 51.3 (57544) - http://www.bohemiancoding.com/sketch --><title>implement-message-based-communication-workflows-with-azure-service-bus</title><desc>Created with Sketch.</desc><defs><rect id="path-1" x="0" y="0" width="96" height="96" rx="48"></rect><filter x="-1.4%" y="-3.4%" width="102.8%" height="113.8%" filterUnits="objectBoundingBox" id="filter-3"><feOffset dx="0" dy="2" in="SourceAlpha" result="shadowOffsetOuter1"></feOffset><feColorMatrix values="0 0 0 0 0   0 0 0 0 0   0 0 0 0 0  0 0 0 0.0991564764 0" type="matrix" in="shadowOffsetOuter1" result="shadowMatrixOuter1"></feColorMatrix><feMerge><feMergeNode in="shadowMatrixOuter1"></feMergeNode><feMergeNode in="SourceGraphic"></feMergeNode></feMerge></filter></defs><g id="Badges-FINAL" stroke="none" stroke-width="1" fill="none" fill-rule="evenodd"><g id="Connecting-Web-&amp;-Services" transform="translate(-578.000000, -671.000000)"><g id="implement-message-based-communication-workflows-with-azure-service-bus" transform="translate(578.000000, 671.000000)"><g id="Mask" transform="translate(2.500000, 2.500000)"><mask id="mask-2" fill="white"><use xlink:href="#path-1"></use></mask><use id="BG" fill="#55A2FF" xlink:href="#path-1"></use><path d="M60.3191429,28.9809107 C61.0896221,28.9809107 61.8346777,29.0854304 62.5500723,29.2633963 C62.4081233,28.6200355 62.3283211,27.9540759 62.3283211,27.2676361 C62.3283211,22.163829 66.4653216,18.0261223 71.5691287,18.0261223 C72.9737879,18.0261223 74.3000574,18.3495682 75.4921463,18.910302 C76.5267495,14.9371432 80.1284399,12 84.4250446,12 C89.5281455,12 93.6658521,16.1370004 93.6658521,21.2408075 C93.6658521,22.0310608 93.5556828,22.7937717 93.3685361,23.5261154 C94.0013037,23.4237144 94.6453707,23.3559178 95.307093,23.3559178 C101.963864,23.3559178 107.359338,28.7528037 107.359338,35.4095749 C107.359338,42.06564 101.963864,47.4618196 95.307093,47.4618196 L60.3191429,47.4618196 C55.2153358,47.4618196 51.0790416,43.3255254 51.0790416,38.2217183 C51.0790416,33.1179112 55.2153358,28.9809107 60.3191429,28.9809107" id="Cloud" fill="#FFFFFF" mask="url(#mask-2)"></path><path d="M30.8940275,60.6560069 C30.4406382,60.6560069 29.9999608,60.7012046 29.567758,60.7718259 C29.6955827,60.2711204 29.7704413,59.7492284 29.7704413,59.2082686 C29.7704413,55.7167476 26.9399364,52.8862427 23.4484154,52.8862427 C22.3022304,52.8862427 21.2301979,53.1955643 20.3043516,53.7287557 C19.6729965,50.6065846 16.9138192,48.2541864 13.6052075,48.2541864 C9.92724607,48.2541864 6.93572443,51.1616686 6.78247604,54.8014945 C6.47315439,54.7577092 6.15888925,54.7280483 5.83685576,54.7280483 C2.06073059,54.7280483 -1,57.7887789 -1,61.564904 C-1,63.8502119 0.126411005,65.8692771 1.84957267,67.1100948 C1.08898041,68.1538788 0.634178725,69.4356568 0.634178725,70.8254855 C0.634178725,74.3177128 3.46468362,77.1482177 6.95620463,77.1482177 L30.8940275,77.1482177 C35.447694,77.1482177 39.1397798,73.4561319 39.1397798,68.9017592 C39.1397798,64.3473864 35.447694,60.6560069 30.8940275,60.6560069" id="Cloud" fill="#FFFFFF" mask="url(#mask-2)"></path><g id="Paper-Plane" filter="url(#filter-3)" mask="url(#mask-2)"><g transform="translate(14.000000, 36.000000)"><polygon id="Fill-2753" fill="#EFB252" points="0 29 43.4567338 24.4887399 50.5 12.5"></polygon><polygon id="Fill-2747" fill="#EFB252" points="43.2692308 2.9 0 29 40.5 22.5"></polygon><polygon id="Fill-2749" fill="#F7CB64" points="0 29 43.2692308 2.9 27.5123269 0"></polygon><polygon id="Fill-2751" fill="#F7CB64" points="52.5 5.5 0 29 71.5 8.5"></polygon></g></g><path d="M63.7954157,11.517753 C63.5729691,11.517753 63.3535978,11.4183183 63.2090588,11.2297 C62.9599596,10.9057685 63.0204404,10.4413984 63.3443719,10.1933243 C64.2290328,9.51265823 65.3105128,9.08929212 66.3878925,9.00215865 C66.7958821,8.97140567 67.1505665,9.27278494 67.1843948,9.67974946 C67.217198,10.086714 66.9137685,10.4424235 66.5078291,10.4752267 C65.7215778,10.5387829 64.8973977,10.8627143 64.2444093,11.3650131 C64.1111464,11.4675231 63.9522559,11.517753 63.7954157,11.517753 M70.9393345,15.1466054 C70.5928508,15.1466054 70.2832708,14.9005815 70.2156142,14.5469221 C70.0813261,13.8570301 69.8506787,12.8473071 69.3945094,12.0405537 C69.1935899,11.6858693 69.3186521,11.2348255 69.6723114,11.0328809 C70.028021,10.8319614 70.4800899,10.9570235 70.6799843,11.312733 C71.2448141,12.3081047 71.5123651,13.474668 71.6661301,14.2670699 C71.7430125,14.6678839 71.4816121,15.0553715 71.0807982,15.132254 C71.0336436,15.1414799 70.9864891,15.1466054 70.9393345,15.1466054 M60.400286,17.7534335 C60.3367298,17.7534335 60.2711234,17.7442076 60.2065422,17.7267809 C59.8129039,17.6201706 59.5812314,17.2142312 59.6878418,16.8205929 C59.8180294,16.337771 59.9717944,15.8375225 60.1419609,15.3321484 C60.3090521,14.8380504 60.4730681,14.4003329 60.6432346,13.9933684 C60.8010999,13.6171568 61.2326668,13.4387895 61.6109286,13.5976799 C61.9871401,13.7565704 62.1634572,14.1881373 62.0055919,14.5653739 C61.8497768,14.9395353 61.6970369,15.3444496 61.5422469,15.8036942 C61.3813063,16.2803655 61.2377923,16.7529364 61.1137553,17.2080806 C61.0245716,17.5361124 60.7262676,17.7534335 60.400286,17.7534335 M71.5277416,22.3253775 C71.5133902,22.3253775 71.5000639,22.3243524 71.4857125,22.3243524 C71.0777229,22.3018002 70.7660926,21.9532664 70.7886448,21.5452768 C70.811197,21.1629146 70.821448,20.765176 70.821448,20.3653872 C70.821448,19.8436115 70.8029962,19.3003087 70.7660926,18.7488052 C70.7394401,18.3408156 71.047995,17.9892064 71.4559846,17.9625538 C71.8629492,17.9359012 72.2145583,18.2444562 72.2412109,18.6514207 C72.2791396,19.2347024 72.2996416,19.8118334 72.2996416,20.3653872 C72.2996416,20.7938788 72.2873404,21.21827 72.2647882,21.6272847 C72.242236,22.020923 71.9172794,22.3253775 71.5277416,22.3253775 M59.9625685,24.8994025 C59.6099342,24.8994025 59.2972789,24.6462029 59.2357729,24.2874181 C59.0789327,23.3925062 59,22.4863181 59,21.5944815 C59,21.485821 59.0010251,21.3761353 59.0030753,21.2674748 C59.0133263,20.8594852 59.3557095,20.5324784 59.7595988,20.5468298 C60.1675884,20.5550306 60.4904947,20.8933134 60.482294,21.3023282 C60.4792187,21.3997126 60.4781936,21.4970971 60.4781936,21.5944815 C60.4781936,22.4012349 60.5499505,23.2223396 60.6914143,24.0331934 C60.761121,24.4360575 60.4925449,24.8184196 60.0907059,24.8881264 C60.0476517,24.8953021 60.0045976,24.8994025 59.9625685,24.8994025 M69.8670803,29.3175816 C69.7737963,29.3175816 69.6805122,29.3001549 69.5892784,29.2632513 C69.2110166,29.1094863 69.0285489,28.6789445 69.1823138,28.3006828 C69.4119361,27.7327777 69.6231066,27.1546215 69.8086497,26.5733901 C69.9080843,26.2658602 70.0003433,25.9573052 70.0864516,25.6487503 C70.1951122,25.255112 70.605152,25.0265148 70.9957149,25.1351754 C71.3893532,25.244861 71.6189755,25.6518256 71.5092898,26.0454638 C71.2478894,26.9906056 70.9249831,27.9367725 70.5518468,28.8562868 C70.4360106,29.1422895 70.1582086,29.3175816 69.8670803,29.3175816 M62.7487891,31.494893 C62.5191668,31.494893 62.2926198,31.3882826 62.1491058,31.186338 C61.5627489,30.372409 61.0471238,29.4990242 60.6135067,28.590786 C60.4382147,28.2227752 60.5950549,27.7809573 60.9630656,27.6056653 C61.3310764,27.4303733 61.7728943,27.5861884 61.9481863,27.9541992 C62.3438747,28.7835047 62.8154205,29.5810321 63.3484723,30.3252544 C63.5862954,30.6563616 63.5114631,31.1176564 63.1793309,31.3565046 C63.0491432,31.4497886 62.8984536,31.494893 62.7487891,31.494893 M68.1387625,36.1970246 C68.0239513,36.1970246 67.9060649,36.1703721 67.7963792,36.1129665 C67.433494,35.922298 67.0767594,35.7172781 66.7302757,35.500982 C66.4873271,35.6455211 66.1715965,35.6424458 65.9265977,35.469204 C65.6877495,35.3000625 65.5790889,35.0150849 65.6241933,34.7444586 C65.5022065,34.6521996 65.3822698,34.5609658 65.2633583,34.4666566 C64.9435272,34.213457 64.8891969,33.7480618 65.1423965,33.4282308 C65.3966212,33.1083997 65.8620164,33.0550945 66.1808224,33.3082941 C66.2546295,33.3667248 66.3304869,33.4251555 66.4053192,33.482561 C66.7210498,33.0058897 67.0203789,32.5333188 67.2961307,32.0699739 C67.505251,31.7183647 67.9593701,31.6045787 68.308929,31.8126739 C68.6595131,32.0217942 68.7743242,32.4748882 68.566229,32.8254722 C68.2740756,33.3164949 67.9593701,33.8146933 67.6251876,34.3169921 C67.9050398,34.4881837 68.1920677,34.6501494 68.4831959,34.8039144 C68.8450561,34.9935578 68.9844696,35.4405012 68.7938011,35.8013362 C68.6615633,36.0535107 68.4052884,36.1970246 68.1387625,36.1970246 M75.0561343,38.0698815 C75.0438331,38.0698815 75.0305068,38.0688564 75.0182056,38.0688564 C74.0177084,38.0186265 73.014136,37.8812632 72.036191,37.6618919 C71.6374273,37.5727082 71.387303,37.1780449 71.4764866,36.7803063 C71.5656703,36.3815426 71.9582834,36.1324434 72.3590973,36.2195768 C73.2560595,36.4204963 74.1755738,36.5455585 75.0930379,36.5927131 C75.5010275,36.6132151 75.8147079,36.9607238 75.7942059,37.3687134 C75.773704,37.7633768 75.4477223,38.0698815 75.0561343,38.0698815 M61.810823,41.2128367 C61.6375811,41.2128367 61.4622891,41.1503057 61.3208254,41.0262686 C61.0163708,40.7546172 60.9886931,40.2871719 61.2593194,39.9827173 C61.955362,39.1995412 62.5683715,38.4901723 63.1332014,37.8136066 C63.3935767,37.5019764 63.8589719,37.4589222 64.1736774,37.7213477 C64.4873579,37.9827481 64.5283619,38.4481433 64.2669615,38.7618237 C63.6918806,39.4486404 63.0706703,40.1692854 62.3643767,40.9647627 C62.2188126,41.1287786 62.0158429,41.2128367 61.810823,41.2128367" id="Dashes" fill="#FDB82C" mask="url(#mask-2)"></path></g><g id="Azure-Border" stroke="#0078D4" stroke-width="4"><rect x="2" y="2" width="96" height="96" rx="48"></rect></g></g></g></g></svg>

<svg xmlns="http://www.w3.org/2000/svg" xmlns:xlink="http://www.w3.org/1999/xlink" viewBox="0 0 100 100"><defs><rect id="a" x="0" y="0" width="96" height="96" rx="48"/><filter x="-1.4%" y="-3.4%" width="102.8%" height="113.8%" filterUnits="objectBoundingBox" id="c"><feOffset dy="2" in="SourceAlpha" result="shadowOffsetOuter1"/><feColorMatrix values="0 0 0 0 0 0 0 0 0 0 0 0 0 0 0 0 0 0 0.0991564764 0" in="shadowOffsetOuter1" result="shadowMatrixOuter1"/><feMerge><feMergeNode in="shadowMatrixOuter1"/><feMergeNode in="SourceGraphic"/></feMerge></filter></defs><g fill="none" fill-rule="evenodd"><g transform="translate(2.5 2.5)"><mask id="b" fill="#fff"><use xlink:href="#a"/></mask><use fill="#55A2FF" xlink:href="#a"/><path d="M60.32 28.98c.77 0 1.515.105 2.23.283a9.243 9.243 0 0 1-.222-1.995 9.241 9.241 0 0 1 9.241-9.242c1.405 0 2.731.324 3.923.884 1.035-3.973 4.636-6.91 8.933-6.91a9.24 9.24 0 0 1 9.24 9.24c0 .791-.11 1.554-.296 2.286.632-.102 1.276-.17 1.938-.17 6.657 0 12.052 5.397 12.052 12.054 0 6.656-5.395 12.052-12.052 12.052H60.32a9.24 9.24 0 0 1-9.24-9.24 9.24 9.24 0 0 1 9.24-9.241M30.894 60.656c-.453 0-.894.045-1.326.116.128-.5.202-1.023.202-1.564a6.322 6.322 0 0 0-6.322-6.322 6.28 6.28 0 0 0-3.144.843 6.839 6.839 0 0 0-6.699-5.475c-3.678 0-6.67 2.908-6.823 6.547a6.726 6.726 0 0 0-.945-.073A6.837 6.837 0 0 0-1 61.565a6.821 6.821 0 0 0 2.85 5.545 6.287 6.287 0 0 0-1.216 3.715 6.322 6.322 0 0 0 6.322 6.323h23.938a8.246 8.246 0 0 0 0-16.492" fill="#FFF" mask="url(#b)"/><g filter="url(#c)" mask="url(#b)"><path fill="#EFB252" d="M14 65l43.457-4.511L64.5 48.5z"/><path fill="#EFB252" d="M57.27 38.9L14 65l40.5-6.5z"/><path fill="#F7CB64" d="M14 65l43.27-26.1L41.511 36zM66.5 41.5L14 65l71.5-20.5z"/></g><path d="M63.795 11.518a.738.738 0 0 1-.451-1.324 5.832 5.832 0 0 1 3.044-1.192.739.739 0 1 1 .12 1.473 4.399 4.399 0 0 0-2.264.89.736.736 0 0 1-.449.153m7.144 3.629a.738.738 0 0 1-.723-.6c-.135-.69-.365-1.7-.821-2.506a.74.74 0 0 1 1.285-.728c.565.995.832 2.162.986 2.954a.738.738 0 0 1-.727.88M60.4 17.753a.738.738 0 0 1-.712-.933c.13-.482.284-.982.454-1.488.167-.494.331-.932.501-1.339a.738.738 0 1 1 1.363.572 18.9 18.9 0 0 0-.464 1.239c-.16.476-.304.949-.428 1.404a.74.74 0 0 1-.714.545m11.128 4.572h-.042a.739.739 0 0 1-.697-.78c.022-.382.032-.78.032-1.18 0-.521-.018-1.065-.055-1.616a.74.74 0 0 1 1.475-.098c.038.584.059 1.16.059 1.714 0 .429-.013.853-.035 1.262a.74.74 0 0 1-.737.698M59.963 24.9a.738.738 0 0 1-.727-.612 15.646 15.646 0 0 1-.233-3.02.739.739 0 1 1 1.48.035 14.237 14.237 0 0 0 .21 2.73.739.739 0 0 1-.73.867m9.904 4.419a.739.739 0 0 1-.685-1.017 24.48 24.48 0 0 0 .904-2.652.74.74 0 0 1 1.423.396 25.796 25.796 0 0 1-.957 2.811.74.74 0 0 1-.685.462m-7.118 2.177a.733.733 0 0 1-.6-.309 16.925 16.925 0 0 1-1.535-2.595.74.74 0 0 1 1.334-.637c.396.83.867 1.627 1.4 2.371a.739.739 0 0 1-.6 1.17m5.39 4.702a.738.738 0 0 1-.342-.084 16.58 16.58 0 0 1-1.066-.612.739.739 0 0 1-1.106-.757 19.747 19.747 0 0 1-.36-.277.74.74 0 0 1 .917-1.159l.224.175c.316-.477.615-.95.891-1.413a.739.739 0 0 1 1.27.755c-.292.491-.607.99-.94 1.492.279.171.566.333.857.487a.737.737 0 0 1-.344 1.393m6.917 1.873l-.038-.001c-1-.05-2.004-.188-2.982-.407a.738.738 0 1 1 .323-1.442c.897.2 1.817.326 2.734.373a.74.74 0 0 1-.037 1.477m-13.245 3.143a.74.74 0 0 1-.552-1.23 92.366 92.366 0 0 0 1.874-2.17.739.739 0 0 1 1.134.949 99.686 99.686 0 0 1-1.903 2.203.737.737 0 0 1-.553.248" fill="#FDB82C" mask="url(#b)"/></g><rect x="2" y="2" width="96" height="96" rx="48" stroke="#0078D4" stroke-width="4"/></g></svg>
